picto/drinking-water-framed.svg

<svg class="color-immutable" width="30" height="30" viewBox="0 0 30 30" fill="none" xmlns="http://www.w3.org/2000/svg"><path d="M29.9999 0H0V29.9999H29.9999V0Z" fill="#2D327D"/><path d="M25.4999 2.99999C26.3249 2.99999 26.9999 3.67499 26.9999 4.49999V25.4999C26.9999 26.3249 26.3249 26.9999 25.4999 26.9999H4.49999C3.67499 26.9999 2.99999 26.3249 2.99999 25.4999V4.49999C2.99999 3.67499 3.67499 2.99999 4.49999 2.99999H25.4999ZM25.4999 2.62499H4.49999C3.46612 2.62499 2.62499 3.46612 2.62499 4.49999V25.4999C2.62499 26.5338 3.46612 27.3749 4.49999 27.3749H25.4999C26.5338 27.3749 27.3749 26.5338 27.3749 25.4999V4.49999C27.3749 3.46612 26.5338 2.62499 25.4999 2.62499Z" fill="white"/><path d="M12.0113 9.46522L13.6557 7.82175L11.7726 5.93865C11.702 5.86912 11.6072 5.82817 11.5087 5.82817C11.4084 5.82817 11.3136 5.86912 11.2421 5.93865L10.1282 7.05292C10.0594 7.1226 10.0185 7.2192 10.0185 7.31752C10.0185 7.41795 10.0595 7.5126 10.1282 7.58317L12.0113 9.46522Z" fill="white"/><path d="M15.7508 10.5006L13.8946 8.64345L12.8337 9.70477L13.6288 10.5006H10.1264C9.09049 10.5006 8.24974 11.34 8.24974 12.3742V13.4996H9.74914V12.3742C9.74914 12.1682 9.91826 12.0001 10.1264 12.0001H19.5002V10.5006H15.7508Z" fill="white"/><path d="M11.7383 15H6.26352C6.11854 15 5.99974 15.117 5.99974 15.2638V22.5006C5.99974 23.3287 6.67234 24 7.50109 24H10.5009C11.3286 24 12.0003 23.3287 12.0003 22.5006V15.2638C12.0003 15.117 11.8832 15 11.7383 15ZM11.3258 18.6008C10.9626 18.7734 10.565 18.8625 10.1636 18.8625C9.76054 18.8625 9.36379 18.7734 9.00049 18.6008C8.63824 18.4282 8.24059 18.337 7.83739 18.337C7.43509 18.337 7.03849 18.4282 6.67609 18.6008V17.8497C7.03849 17.6768 7.43509 17.5877 7.83739 17.5877C8.24059 17.5877 8.63824 17.6769 9.00049 17.8497C9.36379 18.0233 9.76054 18.1125 10.1636 18.1125C10.565 18.1125 10.9626 18.0233 11.3258 17.8497V18.6008ZM11.3258 17.1756C10.9626 17.3481 10.565 17.4373 10.1636 17.4373C9.76054 17.4373 9.36379 17.3481 9.00049 17.1756C8.63824 17.003 8.24059 16.9128 7.83739 16.9128C7.43509 16.9128 7.03849 17.0029 6.67609 17.1756V16.4244C7.03849 16.2516 7.43509 16.1625 7.83739 16.1625C8.24059 16.1625 8.63824 16.2516 9.00049 16.4244C9.36379 16.597 9.76054 16.688 10.1636 16.688C10.565 16.688 10.9626 16.597 11.3258 16.4244V17.1756Z" fill="white"/></svg>

<svg class="color-immutable" width="30" height="30" viewBox="0 0 30 30" fill="none" xmlns="http://www.w3.org/2000/svg"><path d="M30 0H0v30h30V0Z" fill="#2D327D"/><path d="M25.5 3c.825 0 1.5.675 1.5 1.5v21c0 .825-.675 1.5-1.5 1.5h-21c-.825 0-1.5-.675-1.5-1.5v-21C3 3.675 3.675 3 4.5 3h21Zm0-.375h-21A1.877 1.877 0 0 0 2.625 4.5v21c0 1.034.841 1.875 1.875 1.875h21a1.877 1.877 0 0 0 1.875-1.875v-21A1.877 1.877 0 0 0 25.5 2.625Z" fill="#fff"/><path d="m12.011 9.465 1.645-1.643-1.883-1.883a.378.378 0 0 0-.264-.11c-.1 0-.195.04-.267.11l-1.114 1.114a.381.381 0 0 0-.11.265c0 .1.041.195.11.265l1.883 1.882Z" fill="#fff"/><path d="m15.75 10.5-1.855-1.857-1.061 1.062.795.796h-3.503c-1.036 0-1.876.839-1.876 1.873V13.5h1.5v-1.126c0-.206.168-.374.376-.374H19.5v-1.5h-3.75ZM11.738 15H6.264a.264.264 0 0 0-.264.264V22.5A1.5 1.5 0 0 0 7.5 24h3a1.5 1.5 0 0 0 1.5-1.5v-7.236a.262.262 0 0 0-.263-.264Zm-.412 3.6A2.71 2.71 0 0 1 9 18.6a2.702 2.702 0 0 0-2.324 0v-.75a2.702 2.702 0 0 1 2.324 0 2.695 2.695 0 0 0 2.326 0v.75Zm0-1.424a2.71 2.71 0 0 1-2.326 0 2.705 2.705 0 0 0-2.324 0v-.752a2.697 2.697 0 0 1 2.324 0c.364.173.76.264 1.164.264.401 0 .799-.091 1.162-.264v.752Z" fill="#fff"/></svg>
